X:1
T: Monsters in Town! (tentatively)
C:Ann Magill
M:3/4
Q:1/4=150
K:C#min
G2 E2 C2| C2 B,2 C2| C2 E2 C2|E2 G2 F2|
E2 F2 D2| D2 B,2 D2|D2 F2 D2|F2 A2 G2|
F2 E2 C2|C2 B,2 C2|C2 E2 C2|E2 G4|
G2 F2 E2|F2 D2 G2|F2 E2 C2|C2 C4|
z4 G2|E2 C2 C2|B,2 C2 C2|E2 C2 E2|
G2 F2 E2|F2 D2 D2|B,2 D2 D2|F2 D2 F2|
A2 G2 F2|E2 C2 C2|B,2 C2 C2|E2 C2 E2|
G4 G2|F2 E2 F2|D2 G2 F2|E2 C2 C2|
C4 z2||G2 c2 A2|A2 E2 A2|A2 c2 A2|
c2 c2 B2|A2 B2 G2|G2 E2 G2|G2 B2 G2|
B2 B2 A2|G2 A2 c2|c2 G2 c2|c2 F2 c2|
c2 E4|E2 F2 E2|F2 D2 G2|F2 E2 C2|
C2 C4|][cutid2-end]:
